X: 043
M: C
L: 1/8
K: Bb
f2(bf) gfbd | Bfed TcBcd | f/f/f (bf) gdfF | GecA B/B/B (Bd) |
f2(bf) gfbd | Bfed edcB | GBFB DBFD | ECFD B,/B,/B,B, |]


